X:14435
T:Romance de la nia Clara (Arrg. D)
T:Romance de Santa Clara
Z:Mtodu de Gaita
M:2/4
L:1/8
Q:1/4=100
K:D
DF|:"D"A3A|"D"A3A|"Bm"BB BA|"G"G3A|"Bm"B3B|
"G"BA AG|"D"F3G|"D"A3B|"D"AG GF|
"Em"EF GA|"G"G2 F2 -|[1 "D"F2 DF:|[2 "D"F2 FE|
|:"D"D3E|"D"F3F|"G"GG GF|"Em"E3F|"G"G3G|
"D"GF FE|"D"D3E|"D"F3G|"D"FE ED|
"A"CD EF|"Em"E2 D2 -|[1 "D"D2 FE:|[2 "D"D2 DF|
|:"D"A3A|"D"A3A|"Bm"BB BA|"G"G3A|"Bm"B3B|
"G"BA AG|"D"F3G|"D"A3B|"D"AG GF|
"Em"EF GA|"G"G2 F2 -|[1 "D"F2 DF:|[2 "D"F2 FE|
|:"D"D3E|"D"F3F|"G"GG GF|"Em"E3F|"G"G3G|
"D"GF FE|"D"D3E|"D"F3G|"D"FE ED|
"A"CD EF|"Em"E2 D2 -|[1 "D"D2 FE:|[2 "D"D,4|
